packages/foundations/assets/icons/functional/images/transportation/electric_scooter_12.svg

<svg width="12" height="12" viewBox="0 0 12 12" fill="none" xmlns="http://www.w3.org/2000/svg">
<g clip-path="url(#clip0_232_501)">
<path fill-rule="evenodd" clip-rule="evenodd" d="M9.12654 1.30074L7.88743 1.67506C7.4713 1.80076 7.20856 2.20356 7.25229 2.62805L7.94825 6.12535C7.37422 6.49569 6.88232 6.94843 6.56981 7.36511C6.29771 7.72791 6.12406 8.15014 6.04665 8.62471L4.07515 8.62483C3.84365 8.09517 3.31513 7.72511 2.70005 7.72511C1.87179 7.72511 1.20005 8.39667 1.20005 9.22511C1.20005 10.0536 1.87179 10.7251 2.70005 10.7251C3.31503 10.7251 3.84348 10.3552 4.07503 9.82565L6.59981 9.82511C6.93118 9.82511 7.19981 9.55648 7.19981 9.22511C7.1998 8.74919 7.31185 8.37572 7.52981 8.08511C7.69387 7.86636 7.91897 7.64331 8.20562 7.41794L8.33785 8.07439C8.00914 8.34955 7.80005 8.76291 7.80005 9.22511C7.80005 10.0536 8.47179 10.7251 9.30005 10.7251C10.1286 10.7251 10.8 10.0536 10.8 9.22511C10.8 8.46245 10.2311 7.83287 9.49442 7.73759L8.49545 2.74511L9.47355 2.44948C9.76811 2.3605 9.98072 2.00894 9.87441 1.70161C9.76811 1.39428 9.4564 1.20244 9.12654 1.30074ZM9.30005 8.92511C9.46584 8.92511 9.60005 9.05932 9.60005 9.22511C9.60005 9.3909 9.46584 9.52511 9.30005 9.52511C9.13446 9.52511 9.00005 9.39074 9.00005 9.22511C9.00005 9.05948 9.13446 8.92511 9.30005 8.92511ZM2.70005 8.92511C2.86584 8.92511 3.00005 9.05932 3.00005 9.22511C3.00005 9.3909 2.86584 9.52511 2.70005 9.52511C2.53446 9.52511 2.40005 9.39074 2.40005 9.22511C2.40005 9.05948 2.53446 8.92511 2.70005 8.92511ZM4.61653 6.69343C3.92638 6.02712 3.14849 5.79555 2.30355 5.93285C1.97647 5.986 1.7544 6.29424 1.80755 6.62132C1.8607 6.9484 2.16894 7.17046 2.49602 7.11731C2.97344 7.03973 3.36973 7.15771 3.78304 7.55673C4.02143 7.7869 4.40127 7.78022 4.63143 7.54183C4.8616 7.30343 4.85492 6.92359 4.61653 6.69343Z" fill="#1A1C1F"/>
</g>
<defs>
<clipPath id="clip0_232_501">
<rect width="12" height="12" fill="white"/>
</clipPath>
</defs>
</svg>

<svg xmlns="http://www.w3.org/2000/svg" width="12" height="12" fill="none"><g clip-path="url(#a)"><path fill="#1A1C1F" fill-rule="evenodd" d="m9.127 1.3-1.24.375a.9.9 0 0 0-.635.953l.696 3.497c-.574.37-1.066.823-1.378 1.24a2.8 2.8 0 0 0-.523 1.26H4.075a1.5 1.5 0 1 0 0 1.2H6.6a.6.6 0 0 0 .6-.6c0-.476.112-.85.33-1.14q.246-.329.676-.667l.132.656a1.5 1.5 0 1 0 1.157-.337l-1-4.992.979-.296c.294-.088.507-.44.4-.747-.106-.308-.418-.5-.747-.401M9.3 8.926a.3.3 0 1 1 0 .6.3.3 0 0 1 0-.6m-6.6 0a.3.3 0 1 1 0 .6.3.3 0 0 1 0-.6m1.917-2.232c-.69-.666-1.469-.897-2.313-.76a.6.6 0 0 0 .192 1.184c.477-.077.874.04 1.287.44a.6.6 0 1 0 .834-.864" clip-rule="evenodd"/></g><defs><clipPath id="a"><path fill="#fff" d="M0 0h12v12H0z"/></clipPath></defs></svg>
